src/gen3-ui-component/images/icons/search.svg

<?xml version="1.0" encoding="UTF-8"?>
<svg width="18px" height="18px" viewBox="0 0 18 18" version="1.1" xmlns="http://www.w3.org/2000/svg" xmlns:xlink="http://www.w3.org/1999/xlink">
    <!-- Generator: Sketch 52.2 (67145) - http://www.bohemiancoding.com/sketch -->
    <title>search</title>
    <desc>Created with Sketch.</desc>
    <g id="Page-1" stroke="none" stroke-width="1" fill="none" fill-rule="evenodd">
        <g id="search" fill="#000000" fill-rule="nonzero">
            <g id="Group-5">
                <g id="search">
                    <g id="Shape">
                        <path d="M17.7255,16.3853684 L13.3675714,11.9324211 C14.4880714,10.6237895 15.102,8.97726316 15.102,7.26315789 C15.102,3.25831579 11.7855,0 7.70914286,0 C3.63278571,0 0.316285714,3.25831579 0.316285714,7.26315789 C0.316285714,11.268 3.63278571,14.5263158 7.70914286,14.5263158 C9.23946429,14.5263158 10.6977857,14.0728421 11.9446071,13.212 L16.3356429,17.6987368 C16.5191786,17.886 16.7660357,17.9892632 17.0305714,17.9892632 C17.2809643,17.9892632 17.5185,17.8954737 17.6988214,17.7249474 C18.0819643,17.3627368 18.0941786,16.7621053 17.7255,16.3853684 Z M7.70914286,1.89473684 C10.7222143,1.89473684 13.1734286,4.30294737 13.1734286,7.26315789 C13.1734286,10.2233684 10.7222143,12.6315789 7.70914286,12.6315789 C4.69607143,12.6315789 2.24485714,10.2233684 2.24485714,7.26315789 C2.24485714,4.30294737 4.69607143,1.89473684 7.70914286,1.89473684 Z"></path>
                    </g>
                </g>
            </g>
        </g>
    </g>
</svg>

<svg width="18" height="18" xmlns="http://www.w3.org/2000/svg"><path d="m17.726 16.385-4.358-4.453a7.164 7.164 0 0 0 1.734-4.669C15.102 3.258 11.786 0 7.709 0 3.633 0 .316 3.258.316 7.263s3.317 7.263 7.393 7.263c1.53 0 2.989-.453 4.236-1.314l4.39 4.487c.184.187.431.29.696.29a.97.97 0 0 0 .668-.264.937.937 0 0 0 .026-1.34ZM7.709 1.895c3.013 0 5.464 2.408 5.464 5.368 0 2.96-2.45 5.369-5.464 5.369-3.013 0-5.464-2.409-5.464-5.369s2.451-5.368 5.464-5.368Z"/></svg>
